svg/color/aknc.svg

<?xml version="1.0" encoding="UTF-8" ?>
<!DOCTYPE svg PUBLIC "-//W3C//DTD SVG 1.1//EN" "http://www.w3.org/Graphics/SVG/1.1/DTD/svg11.dtd">
<svg width="250pt" height="250pt" viewBox="0 0 250 250" version="1.1" xmlns="http://www.w3.org/2000/svg">
<g id="#ffffffff">
<path fill="#ffffff" opacity="1.00" d=" M 0.00 0.00 L 117.58 0.00 C 112.73 0.58 107.88 1.16 103.06 1.95 C 91.10 4.14 79.41 7.93 68.62 13.55 C 59.65 17.90 51.30 23.49 43.79 30.04 C 35.26 37.15 27.80 45.54 21.64 54.78 C 16.45 62.17 12.39 70.31 8.95 78.65 C 4.77 89.23 1.77 100.36 0.79 111.72 C 0.54 114.00 0.23 116.27 0.00 118.56 L 0.00 0.00 Z" />
<path fill="#ffffff" opacity="1.00" d=" M 132.44 0.00 L 250.00 0.00 L 250.00 117.59 C 249.11 110.35 248.53 103.02 246.42 95.99 C 239.42 65.00 219.64 37.24 192.97 20.05 C 178.44 10.88 162.16 4.23 145.11 1.73 C 140.89 1.11 136.67 0.50 132.44 0.00 Z" />
<path fill="#ffffff" opacity="1.00" d=" M 81.03 22.42 C 91.55 17.83 102.87 15.40 114.19 13.76 C 127.14 13.11 140.18 13.65 152.84 16.62 C 160.75 19.35 168.81 21.82 176.20 25.82 C 199.74 37.94 218.55 58.70 228.60 83.17 C 232.31 92.68 234.31 102.72 236.23 112.71 C 236.84 125.12 236.46 137.60 233.81 149.79 C 231.59 159.13 228.34 168.26 223.91 176.79 C 220.14 183.74 215.73 190.35 210.73 196.48 C 204.63 203.69 197.65 210.15 190.02 215.70 C 181.12 222.17 171.19 227.11 160.82 230.77 C 145.43 235.78 129.07 237.38 112.97 236.08 C 90.99 233.52 69.71 224.56 52.91 210.10 C 38.23 197.84 27.09 181.63 20.19 163.83 C 17.21 154.46 14.79 144.83 13.83 135.01 C 13.35 127.60 13.54 120.15 13.79 112.73 C 15.33 103.68 17.17 94.64 20.43 86.04 C 23.83 76.75 28.60 67.98 34.32 59.92 C 39.83 52.38 46.20 45.46 53.34 39.43 C 61.75 32.56 70.98 26.60 81.03 22.42 M 131.23 29.14 C 129.25 33.45 128.54 38.17 127.48 42.77 C 123.41 60.09 119.77 77.51 115.78 94.85 C 114.52 100.34 113.03 105.80 112.50 111.42 C 116.16 109.94 119.54 107.88 123.00 106.00 C 143.04 95.07 162.91 83.84 182.95 72.90 C 185.01 71.85 187.48 69.71 186.07 67.18 C 184.52 65.26 182.42 63.93 180.48 62.48 C 167.72 53.27 155.14 43.83 142.45 34.53 C 139.04 32.11 135.83 28.52 131.23 29.14 M 109.51 32.58 C 94.24 43.88 79.40 55.80 64.14 67.14 C 60.90 69.46 57.47 72.58 57.65 76.95 C 57.59 107.98 57.61 139.02 57.64 170.04 C 57.41 174.71 61.21 177.91 64.62 180.39 C 78.77 191.22 92.97 201.99 107.00 212.98 C 108.56 214.28 110.54 215.39 112.63 214.75 C 114.26 213.74 114.80 211.82 114.36 210.02 C 112.47 199.28 109.70 188.72 107.75 177.99 C 103.82 161.05 100.98 143.87 97.00 126.94 C 95.85 123.04 97.27 119.13 98.09 115.33 C 103.71 90.32 108.30 65.09 114.09 40.12 C 114.45 38.25 114.94 36.33 114.60 34.42 C 114.06 32.24 111.32 31.65 109.51 32.58 M 184.23 85.22 C 165.46 96.17 146.50 106.80 127.66 117.64 C 123.53 120.06 119.26 122.25 115.33 125.00 C 119.67 128.02 124.40 130.40 128.94 133.09 C 147.35 143.69 165.90 154.05 184.24 164.77 C 185.95 165.60 187.86 167.07 189.85 166.15 C 192.37 165.28 192.27 162.22 192.32 160.04 C 192.28 136.68 192.28 113.32 192.32 89.96 C 192.28 87.76 192.36 84.71 189.86 83.78 C 187.85 82.94 185.96 84.37 184.23 85.22 M 112.48 138.49 C 112.90 143.34 114.31 148.02 115.30 152.77 C 119.18 170.42 123.18 188.03 127.16 205.65 C 128.37 210.75 129.00 216.05 131.24 220.85 C 133.09 220.66 135.18 220.95 136.71 219.66 C 150.89 209.18 165.09 198.74 179.30 188.32 C 181.61 186.56 184.19 185.08 186.08 182.83 C 187.36 180.57 185.57 178.38 183.59 177.40 C 164.29 166.69 145.00 155.97 125.65 145.35 C 121.26 143.06 117.10 140.31 112.48 138.49 Z" />
<path fill="#ffffff" opacity="1.00" d=" M 243.98 163.19 C 247.41 152.91 249.12 142.19 250.00 131.42 L 250.00 250.00 L 132.41 250.00 C 145.64 248.81 158.79 246.17 171.12 241.14 C 181.80 236.80 192.03 231.25 201.11 224.11 C 208.23 218.79 214.63 212.54 220.41 205.79 C 225.77 199.46 230.53 192.61 234.41 185.27 C 238.28 178.22 241.59 170.87 243.98 163.19 Z" />
<path fill="#ffffff" opacity="1.00" d=" M 0.00 132.42 C 1.04 143.48 2.98 154.48 6.54 165.03 C 16.68 194.99 38.43 220.93 66.60 235.47 C 82.60 244.04 100.49 248.71 118.56 250.00 L 0.00 250.00 L 0.00 132.42 Z" />
</g>
<g id="#a360a4ff">
<path fill="#a360a4" opacity="1.00" d=" M 117.58 0.00 L 132.44 0.00 C 136.67 0.50 140.89 1.11 145.11 1.73 C 143.78 3.42 142.46 5.13 141.13 6.83 C 144.98 10.17 149.72 12.50 152.84 16.62 C 140.18 13.65 127.14 13.11 114.19 13.76 C 108.23 13.36 103.75 9.06 100.60 4.35 C 101.42 3.55 102.24 2.75 103.06 1.95 C 107.88 1.16 112.73 0.58 117.58 0.00 Z" />
</g>
<g id="#946ba8ff">
<path fill="#946ba8" opacity="1.00" d=" M 68.62 13.55 C 79.41 7.93 91.10 4.14 103.06 1.95 C 102.24 2.75 101.42 3.55 100.60 4.35 C 103.75 9.06 108.23 13.36 114.19 13.76 C 102.87 15.40 91.55 17.83 81.03 22.42 C 75.86 21.15 72.36 17.00 68.62 13.55 Z" />
</g>
<g id="#b055a0ff">
<path fill="#b055a0" opacity="1.00" d=" M 145.11 1.73 C 162.16 4.23 178.44 10.88 192.97 20.05 C 219.64 37.24 239.42 65.00 246.42 95.99 C 239.82 92.61 236.01 85.24 228.60 83.17 C 218.55 58.70 199.74 37.94 176.20 25.82 C 168.81 21.82 160.75 19.35 152.84 16.62 C 149.72 12.50 144.98 10.17 141.13 6.83 C 142.46 5.13 143.78 3.42 145.11 1.73 Z" />
</g>
<g id="#8477adff">
<path fill="#8477ad" opacity="1.00" d=" M 43.79 30.04 C 51.30 23.49 59.65 17.90 68.62 13.55 C 72.36 17.00 75.86 21.15 81.03 22.42 C 70.98 26.60 61.75 32.56 53.34 39.43 C 50.05 36.41 46.81 33.33 43.79 30.04 Z" />
</g>
<g id="#31cb9eff">
<path fill="#31cb9e" opacity="1.00" d=" M 131.23 29.14 C 135.83 28.52 139.04 32.11 142.45 34.53 C 155.14 43.83 167.72 53.27 180.48 62.48 C 182.42 63.93 184.52 65.26 186.07 67.18 C 187.48 69.71 185.01 71.85 182.95 72.90 C 162.91 83.84 143.04 95.07 123.00 106.00 C 119.54 107.88 116.16 109.94 112.50 111.42 C 113.03 105.80 114.52 100.34 115.78 94.85 C 119.77 77.51 123.41 60.09 127.48 42.77 C 128.54 38.17 129.25 33.45 131.23 29.14 Z" />
<path fill="#31cb9e" opacity="1.00" d=" M 109.51 32.58 C 111.32 31.65 114.06 32.24 114.60 34.42 C 114.94 36.33 114.45 38.25 114.09 40.12 C 108.30 65.09 103.71 90.32 98.09 115.33 C 97.27 119.13 95.85 123.04 97.00 126.94 C 100.98 143.87 103.82 161.05 107.75 177.99 C 109.70 188.72 112.47 199.28 114.36 210.02 C 114.80 211.82 114.26 213.74 112.63 214.75 C 110.54 215.39 108.56 214.28 107.00 212.98 C 92.97 201.99 78.77 191.22 64.62 180.39 C 61.21 177.91 57.41 174.71 57.64 170.04 C 57.61 139.02 57.59 107.98 57.65 76.95 C 57.47 72.58 60.90 69.46 64.14 67.14 C 79.40 55.80 94.24 43.88 109.51 32.58 Z" />
<path fill="#31cb9e" opacity="1.00" d=" M 184.23 85.22 C 185.96 84.37 187.85 82.94 189.86 83.78 C 192.36 84.71 192.28 87.76 192.32 89.96 C 192.28 113.32 192.28 136.68 192.32 160.04 C 192.27 162.22 192.37 165.28 189.85 166.15 C 187.86 167.07 185.95 165.60 184.24 164.77 C 165.90 154.05 147.35 143.69 128.94 133.09 C 124.40 130.40 119.67 128.02 115.33 125.00 C 119.26 122.25 123.53 120.06 127.66 117.64 C 146.50 106.80 165.46 96.17 184.23 85.22 Z" />
<path fill="#31cb9e" opacity="1.00" d=" M 112.48 138.49 C 117.10 140.31 121.26 143.06 125.65 145.35 C 145.00 155.97 164.29 166.69 183.59 177.40 C 185.57 178.38 187.36 180.57 186.08 182.83 C 184.19 185.08 181.61 186.56 179.30 188.32 C 165.09 198.74 150.89 209.18 136.71 219.66 C 135.18 220.95 133.09 220.66 131.24 220.85 C 129.00 216.05 128.37 210.75 127.16 205.65 C 123.18 188.03 119.18 170.42 115.30 152.77 C 114.31 148.02 112.90 143.34 112.48 138.49 Z" />
</g>
<g id="#7484b2ff">
<path fill="#7484b2" opacity="1.00" d=" M 21.64 54.78 C 27.80 45.54 35.26 37.15 43.79 30.04 C 46.81 33.33 50.05 36.41 53.34 39.43 C 46.20 45.46 39.83 52.38 34.32 59.92 C 33.43 58.77 32.64 57.51 31.51 56.57 C 28.27 55.75 24.91 55.48 21.64 54.78 Z" />
</g>
<g id="#6490b6ff">
<path fill="#6490b6" opacity="1.00" d=" M 8.95 78.65 C 12.39 70.31 16.45 62.17 21.64 54.78 C 24.91 55.48 28.27 55.75 31.51 56.57 C 32.64 57.51 33.43 58.77 34.32 59.92 C 28.60 67.98 23.83 76.75 20.43 86.04 C 18.92 83.82 17.56 81.23 15.03 80.02 C 13.11 79.20 10.99 79.01 8.95 78.65 Z" />
</g>
<g id="#549dbbff">
<path fill="#549dbb" opacity="1.00" d=" M 8.95 78.65 C 10.99 79.01 13.11 79.20 15.03 80.02 C 17.56 81.23 18.92 83.82 20.43 86.04 C 17.17 94.64 15.33 103.68 13.79 112.73 C 13.38 114.81 12.93 116.88 12.50 118.96 C 8.81 116.22 5.35 112.93 0.79 111.72 C 1.77 100.36 4.77 89.23 8.95 78.65 Z" />
</g>
<g id="#a260a4ff">
<path fill="#a260a4" opacity="1.00" d=" M 228.60 83.17 C 236.01 85.24 239.82 92.61 246.42 95.99 C 248.53 103.02 249.11 110.35 250.00 117.59 L 250.00 127.70 C 249.31 128.80 248.58 129.88 247.86 130.96 C 244.74 127.82 240.76 125.66 237.77 122.42 C 237.03 119.23 236.89 115.92 236.23 112.71 C 234.31 102.72 232.31 92.68 228.60 83.17 Z" />
</g>
<g id="#42abc0ff">
<path fill="#42abc0" opacity="1.00" d=" M 0.79 111.72 C 5.35 112.93 8.81 116.22 12.50 118.96 C 12.93 116.88 13.38 114.81 13.79 112.73 C 13.54 120.15 13.35 127.60 13.83 135.01 C 14.79 144.83 17.21 154.46 20.19 163.83 C 18.36 160.95 15.83 158.62 13.07 156.63 C 10.26 158.88 7.62 161.49 6.54 165.03 C 2.98 154.48 1.04 143.48 0.00 132.42 L 0.00 118.56 C 0.23 116.27 0.54 114.00 0.79 111.72 Z" />
</g>
<g id="#936ca8ff">
<path fill="#936ca8" opacity="1.00" d=" M 236.23 112.71 C 236.89 115.92 237.03 119.23 237.77 122.42 C 240.76 125.66 244.74 127.82 247.86 130.96 C 248.58 129.88 249.31 128.80 250.00 127.70 L 250.00 131.42 C 249.12 142.19 247.41 152.91 243.98 163.19 C 241.17 161.31 238.23 159.58 235.78 157.24 C 233.65 155.40 234.06 152.30 233.81 149.79 C 236.46 137.60 236.84 125.12 236.23 112.71 Z" />
</g>
<g id="#8576acff">
<path fill="#8576ac" opacity="1.00" d=" M 223.91 176.79 C 228.34 168.26 231.59 159.13 233.81 149.79 C 234.06 152.30 233.65 155.40 235.78 157.24 C 238.23 159.58 241.17 161.31 243.98 163.19 C 241.59 170.87 238.28 178.22 234.41 185.27 C 230.96 182.38 227.46 179.55 223.91 176.79 Z" />
</g>
<g id="#33b6c5ff">
<path fill="#33b6c5" opacity="1.00" d=" M 6.54 165.03 C 7.62 161.49 10.26 158.88 13.07 156.63 C 15.83 158.62 18.36 160.95 20.19 163.83 C 27.09 181.63 38.23 197.84 52.91 210.10 C 69.71 224.56 90.99 233.52 112.97 236.08 C 119.74 237.41 124.90 242.15 129.69 246.79 C 128.73 247.86 127.78 248.93 126.83 250.00 L 118.56 250.00 C 100.49 248.71 82.60 244.04 66.60 235.47 C 38.43 220.93 16.68 194.99 6.54 165.03 Z" />
</g>
<g id="#7880b0ff">
<path fill="#7880b0" opacity="1.00" d=" M 210.73 196.48 C 215.73 190.35 220.14 183.74 223.91 176.79 C 227.46 179.55 230.96 182.38 234.41 185.27 C 230.53 192.61 225.77 199.46 220.41 205.79 C 218.28 201.68 214.45 199.00 210.73 196.48 Z" />
</g>
<g id="#6a8bb4ff">
<path fill="#6a8bb4" opacity="1.00" d=" M 190.02 215.70 C 197.65 210.15 204.63 203.69 210.73 196.48 C 214.45 199.00 218.28 201.68 220.41 205.79 C 214.63 212.54 208.23 218.79 201.11 224.11 C 197.58 221.11 194.41 217.47 190.02 215.70 Z" />
</g>
<g id="#5b98b9ff">
<path fill="#5b98b9" opacity="1.00" d=" M 160.82 230.77 C 171.19 227.11 181.12 222.17 190.02 215.70 C 194.41 217.47 197.58 221.11 201.11 224.11 C 192.03 231.25 181.80 236.80 171.12 241.14 C 171.79 240.02 172.46 238.89 173.14 237.78 C 169.78 234.37 165.78 231.19 160.82 230.77 Z" />
</g>
<g id="#49a6beff">
<path fill="#49a6be" opacity="1.00" d=" M 112.97 236.08 C 129.07 237.38 145.43 235.78 160.82 230.77 C 165.78 231.19 169.78 234.37 173.14 237.78 C 172.46 238.89 171.79 240.02 171.12 241.14 C 158.79 246.17 145.64 248.81 132.41 250.00 L 126.83 250.00 C 127.78 248.93 128.73 247.86 129.69 246.79 C 124.90 242.15 119.74 237.41 112.97 236.08 Z" />
</g>
</svg>

<?xml version="1.0" encoding="utf-8"?>
<!-- Generator: Adobe Illustrator 26.0.3, SVG Export Plug-In . SVG Version: 6.00 Build 0)  -->
<svg version="1.1" id="Layer_1" xmlns="http://www.w3.org/2000/svg" xmlns:xlink="http://www.w3.org/1999/xlink" x="0px" y="0px"
	 viewBox="0 0 250 250" style="enable-background:new 0 0 250 250;" xml:space="preserve">
<style type="text/css">
	.st0{fill:#FFFFFF;}
	.st1{fill:#A360A4;}
	.st2{fill:#946BA8;}
	.st3{fill:#B055A0;}
	.st4{fill:#8477AD;}
	.st5{fill:#31CB9E;}
	.st6{fill:#7484B2;}
	.st7{fill:#6490B6;}
	.st8{fill:#549DBB;}
	.st9{fill:#A260A4;}
	.st10{fill:#42ABC0;}
	.st11{fill:#936CA8;}
	.st12{fill:#8576AC;}
	.st13{fill:#33B6C5;}
	.st14{fill:#7880B0;}
	.st15{fill:#6A8BB4;}
	.st16{fill:#5B98B9;}
	.st17{fill:#49A6BE;}
</style>
<g id="_x23_ffffffff">
	<path class="st0" d="M81,22.4c10.5-4.6,21.8-7,33.2-8.7c12.9-0.7,26-0.1,38.6,2.9c7.9,2.7,16,5.2,23.4,9.2
		c23.5,12.1,42.4,32.9,52.4,57.3c3.7,9.5,5.7,19.6,7.6,29.5c0.6,12.4,0.2,24.9-2.4,37.1c-2.2,9.3-5.5,18.5-9.9,27
		c-3.8,7-8.2,13.6-13.2,19.7c-6.1,7.2-13.1,13.7-20.7,19.2c-8.9,6.5-18.8,11.4-29.2,15.1c-15.4,5-31.8,6.6-47.9,5.3
		c-22-2.6-43.3-11.5-60.1-26c-14.7-12.3-25.8-28.5-32.7-46.3c-3-9.4-5.4-19-6.4-28.8c-0.5-7.4-0.3-14.9,0-22.3
		c1.5-9.1,3.4-18.1,6.6-26.7c3.4-9.3,8.2-18.1,13.9-26.1c5.5-7.5,11.9-14.5,19-20.5C61.8,32.6,71,26.6,81,22.4 M131.2,29.1
		c-2,4.3-2.7,9-3.7,13.6c-4.1,17.3-7.7,34.7-11.7,52.1c-1.3,5.5-2.8,11-3.3,16.6c3.7-1.5,7-3.5,10.5-5.4
		c20-10.9,39.9-22.2,59.9-33.1c2.1-1.1,4.5-3.2,3.1-5.7c-1.6-1.9-3.7-3.2-5.6-4.7c-12.8-9.2-25.3-18.6-38-28
		C139,32.1,135.8,28.5,131.2,29.1 M109.5,32.6C94.2,43.9,79.4,55.8,64.1,67.1c-3.2,2.3-6.7,5.4-6.5,9.8c-0.1,31,0,62.1,0,93.1
		c-0.2,4.7,3.6,7.9,7,10.4C78.8,191.2,93,202,107,213c1.6,1.3,3.5,2.4,5.6,1.8c1.6-1,2.2-2.9,1.7-4.7c-1.9-10.7-4.7-21.3-6.6-32
		c-3.9-16.9-6.8-34.1-10.8-51.1c-1.2-3.9,0.3-7.8,1.1-11.6c5.6-25,10.2-50.2,16-75.2c0.4-1.9,0.9-3.8,0.5-5.7
		C114.1,32.2,111.3,31.6,109.5,32.6 M184.2,85.2c-18.8,10.9-37.7,21.6-56.6,32.4c-4.1,2.4-8.4,4.6-12.3,7.4c4.3,3,9.1,5.4,13.6,8.1
		c18.4,10.6,37,21,55.3,31.7c1.7,0.8,3.6,2.3,5.6,1.4c2.5-0.9,2.4-3.9,2.5-6.1c0-23.4,0-46.7,0-70.1c0-2.2,0-5.2-2.5-6.2
		C187.9,82.9,186,84.4,184.2,85.2 M112.5,138.5c0.4,4.8,1.8,9.5,2.8,14.3c3.9,17.6,7.9,35.3,11.9,52.9c1.2,5.1,1.8,10.4,4.1,15.2
		c1.8-0.2,3.9,0.1,5.5-1.2c14.2-10.5,28.4-20.9,42.6-31.3c2.3-1.8,4.9-3.2,6.8-5.5c1.3-2.3-0.5-4.4-2.5-5.4
		c-19.3-10.7-38.6-21.4-57.9-32C121.3,143.1,117.1,140.3,112.5,138.5z"/>
</g>
<g id="_x23_a360a4ff">
	<path class="st1" d="M117.6,0h14.9c4.2,0.5,8.4,1.1,12.7,1.7c-1.3,1.7-2.6,3.4-4,5.1c3.8,3.3,8.6,5.7,11.7,9.8
		c-12.7-3-25.7-3.5-38.6-2.9c-6-0.4-10.4-4.7-13.6-9.4c0.8-0.8,1.6-1.6,2.5-2.4C107.9,1.2,112.7,0.6,117.6,0z"/>
</g>
<g id="_x23_946ba8ff">
	<path class="st2" d="M68.6,13.6C79.4,7.9,91.1,4.1,103.1,2c-0.8,0.8-1.6,1.6-2.5,2.4c3.2,4.7,7.6,9,13.6,9.4
		c-11.3,1.6-22.6,4.1-33.2,8.7C75.9,21.1,72.4,17,68.6,13.6z"/>
</g>
<g id="_x23_b055a0ff">
	<path class="st3" d="M145.1,1.7c17.1,2.5,33.3,9.1,47.9,18.3c26.7,17.2,46.4,45,53.4,75.9c-6.6-3.4-10.4-10.8-17.8-12.8
		c-10.1-24.5-28.9-45.2-52.4-57.3c-7.4-4-15.4-6.5-23.4-9.2c-3.1-4.1-7.9-6.5-11.7-9.8C142.5,5.1,143.8,3.4,145.1,1.7z"/>
</g>
<g id="_x23_8477adff">
	<path class="st4" d="M43.8,30c7.5-6.6,15.9-12.1,24.8-16.5c3.7,3.4,7.2,7.6,12.4,8.9c-10,4.2-19.3,10.1-27.7,17
		C50,36.4,46.8,33.3,43.8,30z"/>
</g>
<g id="_x23_31cb9eff">
	<path class="st5" d="M131.2,29.1c4.6-0.6,7.8,3,11.2,5.4c12.7,9.3,25.3,18.7,38,28c1.9,1.5,4,2.8,5.6,4.7c1.4,2.5-1.1,4.7-3.1,5.7
		C162.9,83.8,143,95.1,123,106c-3.5,1.9-6.8,3.9-10.5,5.4c0.5-5.6,2-11.1,3.3-16.6c4-17.3,7.6-34.8,11.7-52.1
		C128.5,38.2,129.2,33.5,131.2,29.1z"/>
	<path class="st5" d="M109.5,32.6c1.8-0.9,4.5-0.3,5.1,1.8c0.3,1.9-0.2,3.8-0.5,5.7c-5.8,25-10.4,50.2-16,75.2
		c-0.8,3.8-2.2,7.7-1.1,11.6c4,16.9,6.8,34.1,10.8,51.1c1.9,10.7,4.7,21.3,6.6,32c0.4,1.8-0.1,3.7-1.7,4.7c-2.1,0.6-4.1-0.5-5.6-1.8
		c-14-11-28.2-21.8-42.4-32.6c-3.4-2.5-7.2-5.7-7-10.4c0-31,0-62.1,0-93.1c-0.2-4.4,3.2-7.5,6.5-9.8C79.4,55.8,94.2,43.9,109.5,32.6
		z"/>
	<path class="st5" d="M184.2,85.2c1.7-0.8,3.6-2.3,5.6-1.4c2.5,0.9,2.4,4,2.5,6.2c0,23.4,0,46.7,0,70.1c-0.1,2.2,0,5.2-2.5,6.1
		c-2,0.9-3.9-0.5-5.6-1.4c-18.3-10.7-36.9-21.1-55.3-31.7c-4.5-2.7-9.3-5.1-13.6-8.1c3.9-2.8,8.2-4.9,12.3-7.4
		C146.5,106.8,165.5,96.2,184.2,85.2z"/>
	<path class="st5" d="M112.5,138.5c4.6,1.8,8.8,4.6,13.2,6.9c19.3,10.6,38.6,21.3,57.9,32c2,1,3.8,3.2,2.5,5.4
		c-1.9,2.2-4.5,3.7-6.8,5.5c-14.2,10.4-28.4,20.9-42.6,31.3c-1.5,1.3-3.6,1-5.5,1.2c-2.2-4.8-2.9-10.1-4.1-15.2
		c-4-17.6-8-35.2-11.9-52.9C114.3,148,112.9,143.3,112.5,138.5z"/>
</g>
<g id="_x23_7484b2ff">
	<path class="st6" d="M21.6,54.8c6.2-9.2,13.6-17.6,22.2-24.7c3,3.3,6.3,6.4,9.5,9.4c-7.1,6-13.5,13-19,20.5
		c-0.9-1.1-1.7-2.4-2.8-3.3C28.3,55.8,24.9,55.5,21.6,54.8z"/>
</g>
<g id="_x23_6490b6ff">
	<path class="st7" d="M8.9,78.7c3.4-8.3,7.5-16.5,12.7-23.9c3.3,0.7,6.6,1,9.9,1.8c1.1,0.9,1.9,2.2,2.8,3.3
		C28.6,68,23.8,76.8,20.4,86c-1.5-2.2-2.9-4.8-5.4-6C13.1,79.2,11,79,8.9,78.7z"/>
</g>
<g id="_x23_549dbbff">
	<path class="st8" d="M8.9,78.7c2,0.4,4.2,0.5,6.1,1.4c2.5,1.2,3.9,3.8,5.4,6c-3.3,8.6-5.1,17.6-6.6,26.7c-0.4,2.1-0.9,4.1-1.3,6.2
		c-3.7-2.7-7.2-6-11.7-7.2C1.8,100.4,4.8,89.2,8.9,78.7z"/>
</g>
<g id="_x23_a260a4ff">
	<path class="st9" d="M228.6,83.2c7.4,2.1,11.2,9.4,17.8,12.8c2.1,7,2.7,14.4,3.6,21.6v10.1c-0.7,1.1-1.4,2.2-2.1,3.3
		c-3.1-3.1-7.1-5.3-10.1-8.5c-0.7-3.2-0.9-6.5-1.5-9.7C234.3,102.7,232.3,92.7,228.6,83.2z"/>
</g>
<g id="_x23_42abc0ff">
	<path class="st10" d="M0.8,111.7c4.6,1.2,8,4.5,11.7,7.2c0.4-2.1,0.9-4.2,1.3-6.2c-0.2,7.4-0.4,14.9,0,22.3
		c1,9.8,3.4,19.5,6.4,28.8c-1.8-2.9-4.4-5.2-7.1-7.2c-2.8,2.2-5.4,4.9-6.5,8.4C3,154.5,1,143.5,0,132.4v-13.9
		C0.2,116.3,0.5,114,0.8,111.7z"/>
</g>
<g id="_x23_936ca8ff">
	<path class="st11" d="M236.2,112.7c0.7,3.2,0.8,6.5,1.5,9.7c3,3.2,7,5.4,10.1,8.5c0.7-1.1,1.4-2.2,2.1-3.3v3.7
		c-0.9,10.8-2.6,21.5-6,31.8c-2.8-1.9-5.8-3.6-8.2-5.9c-2.1-1.8-1.7-4.9-2-7.5C236.5,137.6,236.8,125.1,236.2,112.7z"/>
</g>
<g id="_x23_8576acff">
	<path class="st12" d="M223.9,176.8c4.4-8.5,7.7-17.7,9.9-27c0.2,2.5-0.2,5.6,2,7.5c2.4,2.3,5.4,4.1,8.2,5.9
		c-2.4,7.7-5.7,15-9.6,22.1C231,182.4,227.5,179.6,223.9,176.8z"/>
</g>
<g id="_x23_33b6c5ff">
	<path class="st13" d="M6.5,165c1.1-3.5,3.7-6.1,6.5-8.4c2.8,2,5.3,4.3,7.1,7.2c6.9,17.8,18,34,32.7,46.3
		c16.8,14.5,38.1,23.4,60.1,26c6.8,1.3,11.9,6.1,16.7,10.7c-1,1.1-1.9,2.1-2.9,3.2h-8.3c-18.1-1.3-36-6-52-14.5
		C38.4,220.9,16.7,195,6.5,165z"/>
</g>
<g id="_x23_7880b0ff">
	<path class="st14" d="M210.7,196.5c5-6.1,9.4-12.7,13.2-19.7c3.6,2.8,7.1,5.6,10.5,8.5c-3.9,7.3-8.6,14.2-14,20.5
		C218.3,201.7,214.4,199,210.7,196.5z"/>
</g>
<g id="_x23_6a8bb4ff">
	<path class="st15" d="M190,215.7c7.6-5.6,14.6-12,20.7-19.2c3.7,2.5,7.6,5.2,9.7,9.3c-5.8,6.8-12.2,13-19.3,18.3
		C197.6,221.1,194.4,217.5,190,215.7z"/>
</g>
<g id="_x23_5b98b9ff">
	<path class="st16" d="M160.8,230.8c10.4-3.7,20.3-8.6,29.2-15.1c4.4,1.8,7.6,5.4,11.1,8.4c-9.1,7.1-19.3,12.7-30,17
		c0.7-1.1,1.3-2.2,2-3.4C169.8,234.4,165.8,231.2,160.8,230.8z"/>
</g>
<g id="_x23_49a6beff">
	<path class="st17" d="M113,236.1c16.1,1.3,32.5-0.3,47.9-5.3c5,0.4,9,3.6,12.3,7c-0.7,1.1-1.4,2.2-2,3.4c-12.3,5-25.5,7.7-38.7,8.9
		h-5.6c0.9-1.1,1.9-2.1,2.9-3.2C124.9,242.1,119.7,237.4,113,236.1z"/>
</g>
</svg>
